小程序/plus.svg

<svg width="12" height="12">
  <path fill="#000" fill-rule="evenodd" d="M10.7844841 5.21386719c.2102875 0 .3790683.06363868.5063476.19091797.1272793.12727928.190918.29606014.190918.50634765 0 .22135528-.0636387.39566994-.190918.52294922-.1272793.12727928-.2960601.19091797-.5063476.19091797H6.53448406v4.25c0 .2102875-.06640559.3818353-.19921875.5146484-.13281317.1328132-.30436093.1992188-.51464844.1992188s-.38183527-.0664056-.51464844-.1992188c-.13281316-.1328131-.19921875-.3043609-.19921875-.5146484v-4.25h-4.25c-.21028751 0-.37906837-.06363869-.50634765-.19091797-.12727929-.12727928-.19091797-.30159394-.19091797-.52294922 0-.21028751.06363868-.37906837.19091797-.50634765.12727928-.12727929.29606014-.19091797.50634765-.19091797h4.25v-4.25c0-.22135528.06640559-.39566994.19921875-.52294922C5.4387816.31363869 5.61032936.25 5.82061687.25s.38183527.06363869.51464844.19091797c.13281316.12727928.19921875.30159394.19921875.52294922v4.25h4.25000004z"/>
</svg>

<?xml version="1.0" encoding="UTF-8"?>
<svg width="12px" height="12px" viewBox="0 0 12 12" version="1.1" xmlns="http://www.w3.org/2000/svg" xmlns:xlink="http://www.w3.org/1999/xlink">
    <!-- Generator: Sketch 50 (54983) - http://www.bohemiancoding.com/sketch -->
    <title>plus</title>
    <desc>Created with Sketch.</desc>
    <defs></defs>
    <g id="Page-1" stroke="none" stroke-width="1" fill="none" fill-rule="evenodd">
        <g id="plus" fill="#000000">
            <path d="M10.7844841,5.21386719 C10.9947716,5.21386719 11.1635524,5.27750587 11.2908317,5.40478516 C11.418111,5.53206444 11.4817497,5.7008453 11.4817497,5.91113281 C11.4817497,6.13248809 11.418111,6.30680275 11.2908317,6.43408203 C11.1635524,6.56136131 10.9947716,6.625 10.7844841,6.625 L6.53448406,6.625 L6.53448406,10.875 C6.53448406,11.0852875 6.46807847,11.2568353 6.33526531,11.3896484 C6.20245214,11.5224616 6.03090438,11.5888672 5.82061687,11.5888672 C5.61032936,11.5888672 5.4387816,11.5224616 5.30596843,11.3896484 C5.17315527,11.2568353 5.10674968,11.0852875 5.10674968,10.875 L5.10674968,6.625 L0.85674968,6.625 C0.64646217,6.625 0.47768131,6.56136131 0.35040203,6.43408203 C0.22312274,6.30680275 0.15948406,6.13248809 0.15948406,5.91113281 C0.15948406,5.7008453 0.22312274,5.53206444 0.35040203,5.40478516 C0.47768131,5.27750587 0.64646217,5.21386719 0.85674968,5.21386719 L5.10674968,5.21386719 L5.10674968,0.96386719 C5.10674968,0.74251191 5.17315527,0.56819725 5.30596843,0.44091797 C5.4387816,0.31363869 5.61032936,0.25 5.82061687,0.25 C6.03090438,0.25 6.20245214,0.31363869 6.33526531,0.44091797 C6.46807847,0.56819725 6.53448406,0.74251191 6.53448406,0.96386719 L6.53448406,5.21386719 L10.7844841,5.21386719 Z" id="Shape"></path>
        </g>
    </g>
</svg>
